humanity-icon-theme/Humanity/apps/16/gnome-session-hibernate.svg

<?xml version="1.0" encoding="UTF-8" standalone="no"?>
<!-- Created with Inkscape (http://www.inkscape.org/) -->

<svg
   xmlns:svg="http://www.w3.org/2000/svg"
   xmlns="http://www.w3.org/2000/svg"
   xmlns:xlink="http://www.w3.org/1999/xlink"
   version="1.0"
   width="16"
   height="16"
   id="svg3295">
  <defs
     id="defs3297">
    <linearGradient
       id="linearGradient5354">
      <stop
         id="stop5356"
         style="stop-color:#3f3f3f;stop-opacity:1"
         offset="0" />
      <stop
         id="stop5358"
         style="stop-color:#000000;stop-opacity:1"
         offset="1" />
    </linearGradient>
    <linearGradient
       id="linearGradient2145">
      <stop
         id="stop2147"
         style="stop-color:#fffffd;stop-opacity:1"
         offset="0" />
      <stop
         id="stop2149"
         style="stop-color:#cbcbc9;stop-opacity:1"
         offset="1" />
    </linearGradient>
    <linearGradient
       id="linearGradient37935">
      <stop
         id="stop37937"
         style="stop-color:#929292;stop-opacity:1"
         offset="0" />
      <stop
         id="stop37939"
         style="stop-color:#4a4a4a;stop-opacity:1"
         offset="1" />
    </linearGradient>
    <linearGradient
       x1="63.761036"
       y1="-12.929285"
       x2="63.761036"
       y2="5.9721518"
       id="linearGradient2838"
       xlink:href="#linearGradient37935"
       gradientUnits="userSpaceOnUse"
       gradientTransform="matrix(0.7432395,0,0,0.7432223,-38.22979,10.609333)" />
    <linearGradient
       x1="28.771276"
       y1="12.91806"
       x2="28.771276"
       y2="45.347591"
       id="linearGradient2841"
       xlink:href="#linearGradient2145"
       gradientUnits="userSpaceOnUse"
       gradientTransform="matrix(0.3687583,0,0,0.3687582,-0.8509981,-0.8513743)" />
    <linearGradient
       x1="10.44315"
       y1="2.3087604"
       x2="10.44315"
       y2="45.697624"
       id="linearGradient2843"
       xlink:href="#linearGradient5354"
       gradientUnits="userSpaceOnUse"
       gradientTransform="matrix(0.3687583,0,0,0.3687582,-0.8509981,-0.8513743)" />
  </defs>
  <path
     d="m 7.9941083,0.4999771 c -4.139303,0 -7.4941309,3.3548271 -7.4941309,7.4941318 0,4.1393031 3.3548279,7.5059141 7.4941309,7.5059141 4.1393027,0 7.5059187,-3.366611 7.5059147,-7.5059141 0,-4.1393047 -3.366612,-7.4941318 -7.5059147,-7.4941318 z"
     id="path2555"
     style="fill:url(#linearGradient2841);fill-opacity:1;stroke:url(#linearGradient2843);stroke-width:0.99994898;stroke-linecap:round;stroke-linejoin:round;stroke-miterlimit:4;stroke-opacity:1;stroke-dasharray:none;stroke-dashoffset:0" />
  <path
     d="M 14.5,7.9997699 C 14.5,11.589736 11.589638,14.5 8.0000814,14.5 4.4101986,14.5 1.5,11.589704 1.5,7.9997699 1.5,4.409969 4.4101986,1.5 8.0000814,1.5 11.589638,1.5 14.5,4.409969 14.5,7.9997699 l 0,0 z"
     id="path8655"
     style="opacity:0.52747258;fill:none;stroke:url(#linearGradient2838);stroke-width:1;stroke-miterlimit:4;stroke-opacity:1;stroke-dasharray:none" />
  <path
     d="M 7.6276796,9.7908924 12.744424,4.255576"
     id="path2312"
     style="fill:none;stroke:#000000;stroke-width:0.5;stroke-linecap:round;stroke-linejoin:miter;stroke-miterlimit:4;stroke-opacity:1;stroke-dasharray:none" />
  <path
     d="M 8.462302,9.7908924 5.2788102,6.3020443"
     id="path2314"
     style="fill:none;stroke:#000000;stroke-width:0.5;stroke-linecap:round;stroke-linejoin:miter;stroke-miterlimit:4;stroke-opacity:1;stroke-dasharray:none" />
  <path
     d="M 8,9.4191455 14,7"
     id="path2316"
     style="fill:#ff0000;fill-rule:evenodd;stroke:#ff0000;stroke-width:0.40000001;stroke-linecap:round;stroke-linejoin:miter;stroke-miterlimit:4;stroke-opacity:1;stroke-dasharray:none" />
  <path
     d="m 15.563896,2.2738753 -3.328133,2.2534922 3.295817,-0.023234 0.03232,1.960278 -6.9712325,0 0,-1.733879 L 12,2.4607263 l -3.4396485,0 0,-1.98401328 6.9865045,0 0.01704,1.79716228 z"
     id="path13696"
     style="font-size:10px;font-style:normal;font-variant:normal;font-weight:normal;font-stretch:normal;line-height:100%;writing-mode:lr-tb;text-anchor:start;fill:#7da5ca;fill-opacity:1;stroke:#356ca0;stroke-width:0.99999988;stroke-linecap:butt;stroke-linejoin:miter;stroke-miterlimit:4;stroke-opacity:1;stroke-dasharray:none;font-family:Segoe" />
</svg>

<?xml version="1.0" encoding="UTF-8" standalone="no"?>
<!-- Created with Inkscape (http://www.inkscape.org/) -->
<svg id="svg3295" xmlns="http://www.w3.org/2000/svg" height="16" width="16" version="1.0" xmlns:xlink="http://www.w3.org/1999/xlink">
 <defs id="defs3297">
  <linearGradient id="linearGradient2838" y2="5.9722" gradientUnits="userSpaceOnUse" x2="63.761" gradientTransform="matrix(.74324 0 0 .74322 -38.23 10.609)" y1="-12.929" x1="63.761">
   <stop id="stop37937" style="stop-color:#929292" offset="0"/>
   <stop id="stop37939" style="stop-color:#4a4a4a" offset="1"/>
  </linearGradient>
  <linearGradient id="linearGradient2841" y2="45.348" gradientUnits="userSpaceOnUse" x2="28.771" gradientTransform="matrix(.36876 0 0 .36876 -0.851 -.85137)" y1="12.918" x1="28.771">
   <stop id="stop2147" style="stop-color:#fffffd" offset="0"/>
   <stop id="stop2149" style="stop-color:#cbcbc9" offset="1"/>
  </linearGradient>
  <linearGradient id="linearGradient2843" y2="45.698" gradientUnits="userSpaceOnUse" x2="10.443" gradientTransform="matrix(.36876 0 0 .36876 -0.851 -.85137)" y1="2.3088" x1="10.443">
   <stop id="stop5356" style="stop-color:#3f3f3f" offset="0"/>
   <stop id="stop5358" offset="1"/>
  </linearGradient>
 </defs>
 <path id="path2555" style="stroke-linejoin:round;stroke:url(#linearGradient2843);stroke-linecap:round;stroke-width:.99995;fill:url(#linearGradient2841)" d="m7.9941 0.49998c-4.1393 0-7.4941 3.3548-7.4941 7.4941s3.3548 7.5059 7.4941 7.5059 7.5059-3.3666 7.5059-7.5059-3.3666-7.4941-7.5059-7.4941z"/>
 <path id="path8655" style="opacity:.52747;stroke:url(#linearGradient2838);fill:none" d="m14.5 7.9998c0 3.5902-2.91 6.5002-6.4999 6.5002s-6.5001-2.91-6.5001-6.5002c0-3.5898 2.9102-6.4998 6.5001-6.4998s6.4999 2.91 6.4999 6.4998z"/>
 <path id="path2312" style="stroke:#000;stroke-linecap:round;stroke-width:.5;fill:none" d="m7.6277 9.7909 5.1163-5.5353"/>
 <path id="path2314" style="stroke:#000;stroke-linecap:round;stroke-width:.5;fill:none" d="m8.4623 9.7909-3.1835-3.4889"/>
 <path id="path2316" style="fill-rule:evenodd;stroke:#f00;stroke-linecap:round;stroke-width:0.4;fill:#f00" d="m8 9.4191 6-2.4191"/>
 <path id="path13696" style="stroke:#356ca0;fill:#7da5ca" d="m15.564 2.2739-3.3281 2.2535 3.2958-0.023234 0.03232 1.9603h-6.9712v-1.7339l3.4072-2.2699h-3.4396v-1.984h6.9865l0.01704 1.7972z"/>
</svg>
